X: 15163
T: Gigue Des Touristes
R: jig
M: 6/8
K: Cmajor
|:e/f/|gec c2 c|dBG G2 F|EFG ABc|edc d2 e/f/|
gec cBc|dBG GFD|EFG A>Bc|dcB c2:|
|:e/f/|gec c2 a|age c2 e|gec c2 c|dBG G2 e/f/|
gec cac|age c2 e|gec dBG|c3 c2:|

